X:1
T:Dunkeld Harmitage
C:Neil Gow
R:reel
G:fiddle reel, early 18th cent.
M:C|
Q:1/2=120
K:Emin
B| "Em"E2B2 "G"GEBG|"Bm"FdAd "D"FDAF| "Em"E2B2 GEBG| "Bm"AFdF "Em"E2E B|!
E2B2 GEBG| "Bm"FdAd "Bm"FDAF| "Em"E2B2 GEBG| "D"AFdF "Em"E2E :|!
g|"Em"e2g2 bege| "D"d2fd adfd| "Em"e2g2 "G"bege| "D"dBdF "Em"E2Eg|!
"Em"e2g2 "G"bege|"Bm"d2fd "D"adfd|"Em"gbfa "Bm"efde| "Bm"BFdF "Em"E2E :|!
